X:1
T:How Precious Is the Book Divine
T:Fred C. Pullin, 1903
T:How Precious Is the Book Divine
T:Public Domain
T:Public Domain
T:Public Domain
C:Fred C. Pullin, 1903
Z:Public Domain
%%score ( 1 2 ) ( 3 4 )
L:1/8
M:6/8
K:Ab
V:1 treble 
V:2 treble 
V:3 bass 
V:4 bass 
V:1
 E | [CE]2 [Ec] ([DB][Ec])[DB] | [CA]2 [CE] [CE]2 [CE] | [DF]2 [DF] [EF]2 [EF] | [DF]3- [DF]2 F | %5
w: 1.~How|cious is the * book|di- vine, By in-|spir- a- tion giv’n;|Bright * as|
w: 2.~It|to man his * wand-|’ring ways, And where|his feet have trod;|And * brings|
w: 3.~It|ly cheers our * faint-|ing hearts In this|dark vale of tears;|Life, * light|
 [DF]2 [Fd] (cd)[Ec] | [DB]2 [DF] [DF]2 [DF] | [=DB]2 [Dc] [DB]2 [DF] | [DB]3- [DB]2 [DE] | %9
w: a lamp its * pag-|shine To guide our|souls to Heav’n. Its|light * de-|
w: to view the * match-|grace Of a for-|giv- ing God. O’er|all * the|
w: and joy it * still|parts, And quells our|ris- ing fears. This|lamp, * through|
 [CE]2 [Ec] ([DB][Ec])[DB] | [CA]2 [CE] [CE]2 [CE] | [DF]2 [DF] [EF]2 [EF] | [DF]3- [DF]2 F | %13
w: scend- ing from * a-|bove, Our gloom- y|world to cheer, Dis-|plays * a|
w: straight and nar- * row|way Its rad- iant|beams are cast; A|light * whose|
w: all the ted- * ious|night Of life, shall|guide our way, Till|we * be-|
 [FA]2 [FA] (AG)[=FA] | [Ee]2 [Ec] [EA]2 E | ([DF][EG])[EA] [DB]2 [Ec] | [CA]3- [CA]2 || %17
w: ior’s bound- less * love,|brings His glor- ies|||
w: er wear- y * ray|bright- est at the|||
w: the clear- er * light|an e- ter- nal|||
"^Refrain" E | [Ec]2 [Ec] (Bc)[EB] | [Ee]2 [Ec] (Bc)[EB] | [EA]2 [CE] [DF]2 [DA] | %21
w: ||||
w: ||||
w: ||||
 [CE]3- [CE]2 [CE] | [DF]2 [DF] [EA]2 [EA] | [Ed]2 [Ed] [Ec]2 [Ec] | (cB)[_DA] [DG]2 [DA] | %25
w: ||||
w: ||||
w: ||||
 [DB]3- [DB]2 E | [Ec]2 [Ec] (Bc)[EB] | [Ee]2 [Ec] (Bc)[EB] | [EA]2 [CE] [DF]2 [FA] | %29
w: ||||
w: ||||
w: ||||
 [=Ec]3- [Ec]2 [Ec] | [Fd]2 [DF] (FG)[DA] | [Cc]2 [CE] ([CE][=B,=D])[CE] | %32
w: |||
w: |||
w: |||
 ([DF][EG])[EA] [DB]2 [Ec] | [CA]4- [CA] |] %34
w: ||
w: ||
w: ||
V:2
 E | x6 | x6 | x6 | x6 | x3 E2 x | x6 | x6 | x6 | x6 | x6 | x6 | x5 F | x3 _F2 x | x5 E | x6 | %16
w: pre-|||||es|||||||Sav-|And|near.||
w: shows|||||less|||||||nev-|Grows|last.||
w: sweet-|||||im-|||||||hold|Of|day.||
 x5 || E | x3 E2 x | x3 E2 x | x6 | x6 | x6 | x6 | =D2 x4 | x6 | x3 E2 x | x3 E2 x | x6 | x6 | %30
w: ||||||||||||||
w: ||||||||||||||
w: ||||||||||||||
 x3 D2 x | x6 | x6 | x5 |] %34
w: ||||
w: ||||
w: ||||
V:3
 E, | [A,,E,]2 [A,,E,] [A,,F,]2 [A,,G,] | [A,,A,]2 [A,,A,] [A,,A,]2 [A,,A,] | %3
w: ~|~ ~ ~ ~|~ ~ ~ ~|
 [D,A,]2 [D,A,] [C,=A,]2 [C,A,] | [B,,B,]3- [B,,B,]2 F, | [B,,F,]2 [B,,B,] [F,=A,]2 [F,A,] | %6
w: ~ ~ ~ ~|~ * ~|~ ~ ~ ~|
 [B,,B,]2 [B,,B,] [B,,B,]2 [B,,B,] | [B,,F,]2 [B,,F,] [B,,A,]2 [B,,A,] | [E,G,]3- [E,G,]2 [E,G,] | %9
w: ~ ~ ~ ~|~ ~ ~ ~|~ * ~|
 [A,,A,]2 [A,,E,] [A,,F,]2 [A,,G,] | [A,,A,]2 [A,,A,] [A,,A,]2 [A,,A,] | %11
w: ~ ~ ~ ~|~ ~ ~ ~|
 [D,A,]2 [D,A,] [C,=A,]2 [C,A,] | [B,,B,]3- [B,,B,]2 F, | [D,D]2 [D,D] [D,A,]2 [D,A,] | %14
w: ~ ~ ~ ~|~ * ~|~ ~ ~ ~|
 [C,A,]2 [A,,A,] [C,A,]2 [C,A,] | (A,B,)[C,A,] [E,G,]2 [E,G,] | [A,,A,]3- [A,,A,]2 || E, | %18
w: ~ ~ ~ ~|~ * ~ ~ Oh|cious *|book|
 [A,,A,]2 [C,A,] [E,G,]2 [D,G,] | [C,A,]2 [A,,A,] [E,G,]2 [D,G,] | [C,A,]2 [A,,A,] [D,A,]2 [F,A,] | %21
w: light and life Thou|source of truth and|love, In Thee we|
 A,3- A,2 [A,,A,] | [D,A,]2 [D,A,] [C,A,]2 [C,A,] | [B,,G,]2 [B,,G,] [A,,A,]2 [A,,A,] | %24
w: view * God’s|less grace, And all|His good- ness prove,|
 [B,,F,]2 [B,,F,] [B,,B,]2 [B,,F,] | [E,G,]3- [E,G,]2 E, | [A,,A,]2 [C,A,] [E,G,]2 [D,G,] | %27
w: Oh pre- cious book|whose * light|e’er shines With bright|
 [C,A,]2 [A,,A,] [E,G,]2 [D,G,] | [C,A,]2 [A,,A,] [D,A,]2 [D,F,] | [C,G,]3- [C,G,]2 [C,G,] | %30
w: and cheer- ing ray,|To guide our souls|un- * til|
 [B,,B,]2 [B,,B,] [B,,B,]2 [B,,F,] | [E,A,]2 [E,A,] (E,F,)[E,A,] | (A,B,)[C,A,] [E,G,]2 [E,G,] | %33
w: the dawn Of the|e- ter- nal * day.||
 [A,,A,]4- [A,,A,] |] %34
w: |
V:4
 E, | x6 | x6 | x6 | x6 | x6 | x6 | x6 | x6 | x6 | x6 | x6 | x5 F, | x6 | x6 | D,2 x4 | x5 || E, | %18
w: ~||||||||||||~|||pre-||of|
 x6 | x6 | x6 | A,3- A,2 x | x6 | x6 | x6 | x6 | x6 | x6 | x6 | x6 | x6 | x3 A,2 x | D,2 x4 | x5 |] %34
w: |||match- *|||||||||||||

